X:1
T:Winterreise, D.911
T:Die Krähe
T:Winterreise, D.911
T:15. Die Krähe
T:Franz Schubert
T:Wilhelm Müller
T:OpenScore (CC0)
T:OpenScore (CC0)
T:OpenScore (CC0)
T:OpenScore (CC0)
C:Franz Schubert
Z:Wilhelm Müller
Z:OpenScore (CC0)
%%score 1 { 2 | ( 3 4 ) }
L:1/8
Q:1/4=38
M:2/4
K:Eb
V:1 treble nm="Singstimme\nVoice"
V:2 treble nm="Pianoforte"
V:3 treble 
V:4 treble 
V:1
"^Etwas langsam" z4 | z4 | z4 | z4 | z4 |!p! c =B c G | _B A G2 | F A G F | ED C z | c =B c G | %10
w: |||||Ei- ne Krä- he|war mit mir|Aus der Stadt ge|zo- * gen,|ist bis heu- te|
 _B A G2 | F A G c | B2 E z | z4 | z4 |{c} B B z2 | c3/4 B/4 B/ B/ G z | B =B c3/2 B/ |{d} c c z2 | %19
w: für und für|Um mein Haupt ge-|flo- gen.|||Krä- he,|wun- der- li- ches Tier,|Willst mich nicht ver-|las- sen?|
{d} c c z c/ c/ | d3/2 c/ =A z | c ^c d3/2 c/ |{=e} dd z2 | z4 | c =B c G | _B A G2 | F A G F | %27
w: meinst wohl bald als|Beu- te hier|Mei- nen Leib zu|fas- sen||Nun, es wird nicht|weit mehr geh'n|An dem Wan- der-|
 (ED) C z |!mp! C3/2 C/ C3/2 C/ | c _d c2 |!mf! c =d e f | g4 | =e2 z2 |!p! C3/2 C/ C3/2 C/ | %34
w: sta- * be.|Krä- he, laß mich|end- lich seh'n|Treu- e bis zum|Gra-|be|Krä- he, laß mich|
 c _d c2 | c3/2 C/ C C | G4 | C2 z2 | z4 | z4 | z4 | z4 | !fermata!z4 |] %43
w: end- lich seh'n|Treu- e bis zum|Gra-|be!||||||
V:2
 (c'=bc'g | _ba g2) | f!<(!a!<)!!>(!g!>)!f | e_dc=B | c2 (3z/ (c/e/) (3z/ (c/g/) | %5
 (3z/ (e/g/) (3z/ (d/g/) (3z/ (e/g/) (3z/ (e/g/) | %6
 (3z/ ([=eg]/c'/) (3z/ ([fa]/c'/) (3z/ (_e/c'/) (3z/ ([eg]/c'/) | %7
 (3z/ ([da]/c'/) (3z/ ([df]/c'/) (3z/ ([dg]/=b/) (3z/ ([da]/b/) | %8
 (3z/ ([eg]/c'/) (3z/ ([f=b]/d'/) (3z/ ([gc']/e'/) (3z/ ([eg]/c'/) | %9
 (3z/ e/g/ (3z/ d/g/ (3z/ e/g/ (3z/ e/g/ | (3z/ [=eg]/c'/ (3z/ [fa]/c'/ (3z/ _e/c'/ (3z/ [eg]/c'/ | %11
 (3z/ [da]/c'/ (3z/ [df]/c'/ (3z/ [eg]/b/ (3z/ e/a/ | (3z/ e/g/ (3z/ d/f/ (3z/ B/e/ (3z/ e/b/ | %13
 (3z/ [da]/c'/ (3z/ [df]/_c'/ (3z/ [eg]/b/ (3z/ e/a/ | (3z/ e/g/ (3z/ d/f/ (3z/ B/e/ (3z/ ^F/B/ | %15
 (3z/ G/B/ (3z/ ^F/B/ (3z/ G/B/ (3z/ F/B/ | (3z/ G/B/ (3z/ ^F/B/ (3z/ G/B/ (3z/ F/B/ | %17
!<(! (3z/ G/B/ (3z/ A/=B/!<)!!>(! (3z/ G/c/ (3z/ A/B/!>)! | %18
 (3z/ G/c/ (3z/ A/=B/ (3z/ G/c/ (3z/ ^G/c/ |"_cresc." (3z/ =A/c/ (3z/ ^G/c/ (3z/ A/c/ (3z/ G/c/ | %20
 (3z/ =A/c/ (3z/ ^G/c/ (3z/ A/c/ (3z/ G/c/ | %21
!<(! (3z/ =A/c/ (3z/ B/!<)!^c/!>(! (3z/ A/d/ (3z/ G/c/!>)! | %22
 (3z/ ^F/d/ (3z/ [F=A]/d/ (3z/ [=FG]/d/ (3z/ [F=B]/d/ | %23
 (3z/ _E/c/ (3z/ c/g/ (3z/ [cd]/a/ (3z/ [=Bd]/g/ | (3z/ e/g/ (3z/ d/g/ (3z/ e/g/ (3z/ e/g/ | %25
 (3z/ [=eg]/c'/ (3z/ [fa]/c'/ (3z/ _e/c'/ (3z/ [eg]/c'/ | %26
 (3z/ [da]/c'/ (3z/ [df]/c'/ (3z/ [dg]/=b/ (3z/ [da]/b/ | %27
 (3z/ [eg]/c'/ (3z/ [f=b]/d'/ (3z/ [gc']/e'/ (3z/ =e'/c'/ | %28
 (3z/ f'/c'/ (3z/ =e'/c'/"_cresc." (3z/ f'/c'/ (3z/ e'/c'/ | %29
 (3z/ f'/c'/ (3z/ =e'/c'/ (3z/ f'/c'/ (3z/ e'/c'/ | %30
!<(! (3z/ f'/c'/ (3z/ d'/c'/ (3z/ e'/c'/ (3z/ [d'f']/!<)!c'/ | %31
 (3z/!>(! [c'e'g']/g/ (3z/ g'/g/ (3z/ [=bd'g']/g/ (3z/ g'/g/!>)! | %32
 (3z/!>(! [_d'=e']/g/ (3z/ [B=e]/G/ (3z/ [ce]/G/ (3z/ e/c/!>)! | %33
!p! (3z/ f/c/ (3z/ =e/c/ (3z/ f/c/ (3z/ e/c/ | (3z/ f/c/ (3z/ =e/c/ (3z/ f/c/ (3z/ e/c/ | %35
!<(! (3z/ f/c/ (3z/ [_eg]/!<)!c/!>(! (3z/ [e=a]/c/ (3z/ [e^f]/c/!>)! | %36
 (3z/ [ceg]/G/ (3z/ g/G/ (3z/ [=Bdg]/G/ (3z/ g/G/ |!p! (c=BcG | _BA G2) | (FAGF | E_DC=B,) | %41
"_dim." (.C.C.C.C) | !fermata!C4 |] %43
V:3
!p! (3(C/E/G/ (3D/F/G/ (3E/G/c/ (3=E/G/c/ | (3F/A/c/ (3D/F/c/ (3E/G/c/ (3G/E/C/) | %2
 (3(_D/F/A/ (3C/E/A/ (3=B,/=D/G/ (3G,/B,/F/) | (3(A,/C/E/ (3F,/A,/_D/ (3G,/C/E/ (3G,/=D/F/) | %4
!p! (3C/E/G/(3E/G/c/ x2 |(c=BcG | _BAGE) | (FAGF | ED CE/G/) | (c=BcG | _BAGE) | (FAGc) | %12
 (B[B,A][EG]G) | (FA Gc/_c/) | (B[B,A][EG]) (D | EDED | EDED) | (EF=EF) | (=EFE)(E | F=EFE | %20
 F=EFE) | FG^F_E | D(D=B,G,) | (_A,[E,E][F,F][G,G]) | ([Cc]=BcG | _BAGE) | (FAGF) | (EDC[B,C]) | %28
[K:bass] ([A,C][G,C][A,C][G,C]) | ([A,C][G,C][A,C][G,C]) | [A,C][F,C][G,C][A,CD] | %31
!f! [G,CE][CE] [G,=B,D][B,D] | [_B,_D=E]DC[B,C] | ([A,C][G,C][A,C][G,C]) | ([A,C][G,C][A,C][G,C]) | %35
 [A,C][G,C][^F,C][=A,C] | [G,CE][CE][G,=B,D][B,D] | %37
 (3(C,/E,/G,/ (3D,/F,/G,/ (3E,/G,/C/ (3=E,/G,/C/ | (3F,/A,/C/ (3D,/F,/C/ (3E,/G,/C/ (3G,/E,/C,/) | %39
 (3(_D,/F,/A,/ (3C,/E,/A,/ (3=B,,/=D,/G,/ (3G,,/B,,/F,/ | %40
 (3A,,/C,/E,/ (3F,,/A,,/_D,/ (3G,,/C,/E,/ (3G,,/=B,,/=D,/) | %41
 (3(A,,/=B,,/C,/ (3F,,/A,,/C,/ (3E,,/G,,/C,/ (3D,,/F,,/C,/) | !fermata![C,,E,,C,]4 |] %43
V:4
 x4 | x4 | x4 | x4 | (CEGc) | x4 | x4 | x4 | x4 | x4 | x4 | x4 | x4 | x4 | x4 | x4 | x4 | x4 | x4 | %19
 x4 | x4 | x4 | x4 | x4 | x4 | x4 | x4 | x4 |[K:bass] x4 | x4 | x4 | x4 | x4 | x4 | x4 | x4 | x4 | %37
 x4 | x4 | x4 | x4 | x4 | x4 |] %43

